assets/guidance-icon.svg

<svg width="92" height="92" xmlns="http://www.w3.org/2000/svg">
 <mask id="path-1-inside-1">
  <path id="svg_1" d="m33.2683,32.6154l7.1829,0c1.2476,0 2.2683,-1.0385 2.2683,-2.3077c0,-1.2692 -1.0207,-2.3077 -2.2683,-2.3077l-7.1829,0c-1.2475,0 -2.2683,1.0385 -2.2683,2.3077c0,1.2692 1.0208,2.3077 2.2683,2.3077zm15.4998,0l10.9636,0c1.2476,0 2.2683,-1.0385 2.2683,-2.3077c0,-1.2692 -1.0207,-2.3077 -2.2683,-2.3077l-10.9636,0c-1.2476,0 -2.2684,1.0385 -2.2684,2.3077c0,1.2692 1.0208,2.3077 2.2684,2.3077zm-4.5363,15.3846l-10.9635,0c-1.2475,0 -2.2683,-1.0385 -2.2683,-2.3077c0,-1.2692 1.0208,-2.3077 2.2683,-2.3077l10.9635,0c1.2475,0 2.2683,1.0385 2.2683,2.3077c0,1.2692 -1.0208,2.3077 -2.2683,2.3077zm8.3168,0l7.1831,0c1.2475,0 2.2683,-1.0385 2.2683,-2.3077c0,-1.2692 -1.0208,-2.3077 -2.2683,-2.3077l-7.1831,0c-1.2476,0 -2.2683,1.0385 -2.2683,2.3077c0,1.2692 1.0207,2.3077 2.2683,2.3077z" clip-rule="evenodd" fill-rule="evenodd"/>
 </mask>

 <mask id="path-3-inside-2">
  <path id="svg_2" d="m15,72.9792c0,5.5114 4.55,10.0208 10.1111,10.0208l50.5556,0c1.2833,0 2.3333,-1.0406 2.3333,-2.3125l0,-5.0104c0,-1.2719 -1.05,-2.3125 -2.3333,-2.3125c-1.2834,0 -2.3334,1.0406 -2.3334,2.3125l0,2.6979l-48.2222,0c-2.9944,0 -5.4444,-2.4281 -5.4444,-5.3958c0,-1.4646 0.5444,-2.775 1.6333,-3.8157c1.0111,-1.002 2.3334,-1.5802 3.8111,-1.5802l50.5556,0c1.2833,0 2.3333,-1.0406 2.3333,-2.3125l0,-53.9583c0,-1.2719 -1.05,-2.3125 -2.3333,-2.3125l-50.5556,0c-5.5611,0 -10.1111,4.5094 -10.1111,10.0208l0,53.9584zm4.6667,-8.4592c1.586,-1.0167 3.4744,-1.5617 5.4444,-1.5617l48.2222,0l0,-49.3333l-48.2222,0c-2.9944,0 -5.4444,2.4281 -5.4444,5.3958l0,45.4992z" clip-rule="evenodd" fill-rule="evenodd"/>
 </mask>
 <g>
  <title>background</title>
  <rect fill="none" id="canvas_background" height="402" width="582" y="-1" x="-1"/>
 </g>
 <g>
  <title>Layer 1</title>
  <path id="svg_3" fill="#007fff" d="m33.460127,32.6154l7.1829,0c1.2476,0 2.2683,-1.0385 2.2683,-2.3077c0,-1.2692 -1.0207,-2.3077 -2.2683,-2.3077l-7.1829,0c-1.2475,0 -2.2683,1.0385 -2.2683,2.3077c0,1.2692 1.0208,2.3077 2.2683,2.3077zm15.4998,0l10.9636,0c1.2476,0 2.2683,-1.0385 2.2683,-2.3077c0,-1.2692 -1.0207,-2.3077 -2.2683,-2.3077l-10.9636,0c-1.2476,0 -2.2684,1.0385 -2.2684,2.3077c0,1.2692 1.0208,2.3077 2.2684,2.3077zm-4.5363,15.3846l-10.9635,0c-1.2475,0 -2.2683,-1.0385 -2.2683,-2.3077c0,-1.2692 1.0208,-2.3077 2.2683,-2.3077l10.9635,0c1.2475,0 2.2683,1.0385 2.2683,2.3077c0,1.2692 -1.0208,2.3077 -2.2683,2.3077zm8.3168,0l7.1831,0c1.2475,0 2.2683,-1.0385 2.2683,-2.3077c0,-1.2692 -1.0208,-2.3077 -2.2683,-2.3077l-7.1831,0c-1.2476,0 -2.2683,1.0385 -2.2683,2.3077c0,1.2692 1.0207,2.3077 2.2683,2.3077z" clip-rule="evenodd" fill-rule="evenodd"/>
  <path id="svg_4" mask="url(#path-1-inside-1)" fill="#007fff" d="m33.460126,34.1154l7.1829,0l0,-3l-7.1829,0l0,3zm7.1829,0c2.1002,0 3.7683,-1.7345 3.7683,-3.8077l-3,0c0,0.4652 -0.3734,0.8077 -0.7683,0.8077l0,3zm3.7683,-3.8077c0,-2.0732 -1.6681,-3.8077 -3.7683,-3.8077l0,3c0.3949,0 0.7683,0.3425 0.7683,0.8077l3,0zm-3.7683,-3.8077l-7.1829,0l0,3l7.1829,0l0,-3zm-7.1829,0c-2.1002,0 -3.7683,1.7345 -3.7683,3.8077l3,0c0,-0.4652 0.3734,-0.8077 0.7683,-0.8077l0,-3zm-3.7683,3.8077c0,2.0732 1.6681,3.8077 3.7683,3.8077l0,-3c-0.3949,0 -0.7683,-0.3425 -0.7683,-0.8077l-3,0zm19.2681,3.8077l10.9636,0l0,-3l-10.9636,0l0,3zm10.9636,0c2.1002,0 3.7683,-1.7345 3.7683,-3.8077l-3,0c0,0.4652 -0.3734,0.8077 -0.7683,0.8077l0,3zm3.7683,-3.8077c0,-2.0732 -1.6681,-3.8077 -3.7683,-3.8077l0,3c0.3949,0 0.7683,0.3425 0.7683,0.8077l3,0zm-3.7683,-3.8077l-10.9636,0l0,3l10.9636,0l0,-3zm-10.9636,0c-2.1003,0 -3.7684,1.7345 -3.7684,3.8077l3,0c0,-0.4652 0.3734,-0.8077 0.7684,-0.8077l0,-3zm-3.7684,3.8077c0,2.0732 1.6681,3.8077 3.7684,3.8077l0,-3c-0.395,0 -0.7684,-0.3425 -0.7684,-0.8077l-3,0zm-0.7679,16.1923l-10.9635,0l0,3l10.9635,0l0,-3zm-10.9635,0c-0.3949,0 -0.7683,-0.3425 -0.7683,-0.8077l-3,0c0,2.0732 1.6681,3.8077 3.7683,3.8077l0,-3zm-0.7683,-0.8077c0,-0.4652 0.3734,-0.8077 0.7683,-0.8077l0,-3c-2.1002,0 -3.7683,1.7345 -3.7683,3.8077l3,0zm0.7683,-0.8077l10.9635,0l0,-3l-10.9635,0l0,3zm10.9635,0c0.3949,0 0.7683,0.3425 0.7683,0.8077l3,0c0,-2.0732 -1.6681,-3.8077 -3.7683,-3.8077l0,3zm0.7683,0.8077c0,0.4652 -0.3734,0.8077 -0.7683,0.8077l0,3c2.1002,0 3.7683,-1.7345 3.7683,-3.8077l-3,0zm7.5485,3.8077l7.1831,0l0,-3l-7.1831,0l0,3zm7.1831,0c2.1002,0 3.7683,-1.7345 3.7683,-3.8077l-3,0c0,0.4652 -0.3734,0.8077 -0.7683,0.8077l0,3zm3.7683,-3.8077c0,-2.0732 -1.6681,-3.8077 -3.7683,-3.8077l0,3c0.3949,0 0.7683,0.3425 0.7683,0.8077l3,0zm-3.7683,-3.8077l-7.1831,0l0,3l7.1831,0l0,-3zm-7.1831,0c-2.1002,0 -3.7683,1.7345 -3.7683,3.8077l3,0c0,-0.4652 0.3734,-0.8077 0.7683,-0.8077l0,-3zm-3.7683,3.8077c0,2.0732 1.6681,3.8077 3.7683,3.8077l0,-3c-0.3949,0 -0.7683,-0.3425 -0.7683,-0.8077l-3,0z"/>
  <path id="svg_5" fill="#007fff" d="m15,72.9792c0,5.5114 4.55,10.0208 10.1111,10.0208l50.5556,0c1.2833,0 2.3333,-1.0406 2.3333,-2.3125l0,-5.0104c0,-1.2719 -1.05,-2.3125 -2.3333,-2.3125c-1.2834,0 -2.3334,1.0406 -2.3334,2.3125l0,2.6979l-48.2222,0c-2.9944,0 -5.4444,-2.4281 -5.4444,-5.3958c0,-1.4646 0.5444,-2.775 1.6333,-3.8157c1.0111,-1.002 2.3334,-1.5802 3.8111,-1.5802l50.5556,0c1.2833,0 2.3333,-1.0406 2.3333,-2.3125l0,-53.9583c0,-1.2719 -1.05,-2.3125 -2.3333,-2.3125l-50.5556,0c-5.5611,0 -10.1111,4.5094 -10.1111,10.0208l0,53.9584zm4.6667,-8.4592c1.586,-1.0167 3.4744,-1.5617 5.4444,-1.5617l48.2222,0l0,-49.3333l-48.2222,0c-2.9944,0 -5.4444,2.4281 -5.4444,5.3958l0,45.4992z" clip-rule="evenodd" fill-rule="evenodd"/>
  <path id="svg_6" mask="url(#path-3-inside-2)" fill="#007fff" d="m73.429213,78.375l0,1.5l1.5,0l0,-1.5l-1.5,0zm-52.0333,-9.2115l1.0364,1.0845l0.0098,-0.0095l0.0097,-0.0096l-1.0559,-1.0654zm-1.6333,-4.6435l-1.5,0l0,2.7434l2.3095,-1.4806l-0.8095,-1.2628zm53.6666,-1.5617l0,1.5l1.5,0l0,-1.5l-1.5,0zm0,-49.3333l1.5,0l0,-1.5l-1.5,0l0,1.5zm-59.8333,59.3542c0,6.3525 5.2343,11.5208 11.6111,11.5208l0,-3c-4.7454,0 -8.6111,-3.8505 -8.6111,-8.5208l-3,0zm11.6111,11.5208l50.5556,0l0,-3l-50.5556,0l0,3zm50.5556,0c2.099,0 3.8333,-1.6995 3.8333,-3.8125l-3,0c0,0.4308 -0.3657,0.8125 -0.8333,0.8125l0,3zm3.8333,-3.8125l0,-5.0104l-3,0l0,5.0104l3,0zm0,-5.0104c0,-2.113 -1.7343,-3.8125 -3.8333,-3.8125l0,3c0.4676,0 0.8333,0.3817 0.8333,0.8125l3,0zm-3.8333,-3.8125c-2.0991,0 -3.8334,1.6995 -3.8334,3.8125l3,0c0,-0.4308 0.3657,-0.8125 0.8334,-0.8125l0,-3zm-3.8334,3.8125l0,2.6979l3,0l0,-2.6979l-3,0zm1.5,1.1979l-48.2222,0l0,3l48.2222,0l0,-3zm-48.2222,0c-2.1787,0 -3.9444,-1.7692 -3.9444,-3.8958l-3,0c0,3.8088 3.1343,6.8958 6.9444,6.8958l0,-3zm-3.9444,-3.8958c0,-1.06 0.3805,-1.977 1.1697,-2.7312l-2.0727,-2.1689c-1.3886,1.3271 -2.097,3.0309 -2.097,4.9001l3,0zm1.1892,-2.7503c0.7419,-0.7352 1.6891,-1.1456 2.7552,-1.1456l0,-3c-1.8894,0 -3.5867,0.746 -4.867,2.0148l2.1118,2.1308zm2.7552,-1.1456l50.5556,0l0,-3l-50.5556,0l0,3zm50.5556,0c2.099,0 3.8333,-1.6995 3.8333,-3.8125l-3,0c0,0.4308 -0.3657,0.8125 -0.8333,0.8125l0,3zm3.8333,-3.8125l0,-53.9583l-3,0l0,53.9583l3,0zm0,-53.9583c0,-2.11296 -1.7343,-3.8125 -3.8333,-3.8125l0,3c0.4676,0 0.8333,0.3817 0.8333,0.8125l3,0zm-3.8333,-3.8125l-50.5556,0l0,3l50.5556,0l0,-3zm-50.5556,0c-6.3768,0 -11.6111,5.1683 -11.6111,11.5208l3,0c0,-4.6703 3.8657,-8.5208 8.6111,-8.5208l0,-3zm-11.6111,11.5208l0,53.9584l3,0l0,-53.9584l-3,0zm6.9762,46.762c1.3352,-0.8559 2.9408,-1.3245 4.6349,-1.3245l0,-3c-2.2458,0 -4.4172,0.6215 -6.254,1.799l1.6191,2.5255zm4.6349,-1.3245l48.2222,0l0,-3l-48.2222,0l0,3zm49.7222,-1.5l0,-49.3333l-3,0l0,49.3333l3,0zm-1.5,-50.8333l-48.2222,0l0,3l48.2222,0l0,-3zm-48.2222,0c-3.8101,0 -6.9444,3.087 -6.9444,6.8958l3,0c0,-2.1266 1.7657,-3.8958 3.9444,-3.8958l0,-3zm-6.9444,6.8958l0,45.4992l3,0l0,-45.4992l-3,0z"/>
 </g>
</svg>

<svg width="92" height="92" viewBox="0 0 92 92" fill="none" xmlns="http://www.w3.org/2000/svg">
<mask id="path-1-inside-1" fill="white">
<path fill-rule="evenodd" clip-rule="evenodd" d="M33.2683 32.6154H40.4512C41.6988 32.6154 42.7195 31.5769 42.7195 30.3077C42.7195 29.0385 41.6988 28 40.4512 28H33.2683C32.0208 28 31 29.0385 31 30.3077C31 31.5769 32.0208 32.6154 33.2683 32.6154ZM48.7681 32.6154H59.7317C60.9793 32.6154 62 31.5769 62 30.3077C62 29.0385 60.9793 28 59.7317 28H48.7681C47.5205 28 46.4997 29.0385 46.4997 30.3077C46.4997 31.5769 47.5205 32.6154 48.7681 32.6154ZM44.2318 48H33.2683C32.0208 48 31 46.9615 31 45.6923C31 44.4231 32.0208 43.3846 33.2683 43.3846H44.2318C45.4793 43.3846 46.5001 44.4231 46.5001 45.6923C46.5001 46.9615 45.4793 48 44.2318 48ZM52.5486 48H59.7317C60.9792 48 62 46.9615 62 45.6923C62 44.4231 60.9792 43.3846 59.7317 43.3846H52.5486C51.301 43.3846 50.2803 44.4231 50.2803 45.6923C50.2803 46.9615 51.301 48 52.5486 48Z"/>
</mask>
<path fill-rule="evenodd" clip-rule="evenodd" d="M33.2683 32.6154H40.4512C41.6988 32.6154 42.7195 31.5769 42.7195 30.3077C42.7195 29.0385 41.6988 28 40.4512 28H33.2683C32.0208 28 31 29.0385 31 30.3077C31 31.5769 32.0208 32.6154 33.2683 32.6154ZM48.7681 32.6154H59.7317C60.9793 32.6154 62 31.5769 62 30.3077C62 29.0385 60.9793 28 59.7317 28H48.7681C47.5205 28 46.4997 29.0385 46.4997 30.3077C46.4997 31.5769 47.5205 32.6154 48.7681 32.6154ZM44.2318 48H33.2683C32.0208 48 31 46.9615 31 45.6923C31 44.4231 32.0208 43.3846 33.2683 43.3846H44.2318C45.4793 43.3846 46.5001 44.4231 46.5001 45.6923C46.5001 46.9615 45.4793 48 44.2318 48ZM52.5486 48H59.7317C60.9792 48 62 46.9615 62 45.6923C62 44.4231 60.9792 43.3846 59.7317 43.3846H52.5486C51.301 43.3846 50.2803 44.4231 50.2803 45.6923C50.2803 46.9615 51.301 48 52.5486 48Z" fill="#F8B133"/>
<path d="M33.2683 34.1154H40.4512V31.1154H33.2683V34.1154ZM40.4512 34.1154C42.5514 34.1154 44.2195 32.3809 44.2195 30.3077H41.2195C41.2195 30.7729 40.8461 31.1154 40.4512 31.1154V34.1154ZM44.2195 30.3077C44.2195 28.2345 42.5514 26.5 40.4512 26.5V29.5C40.8461 29.5 41.2195 29.8425 41.2195 30.3077H44.2195ZM40.4512 26.5H33.2683V29.5H40.4512V26.5ZM33.2683 26.5C31.1681 26.5 29.5 28.2345 29.5 30.3077H32.5C32.5 29.8425 32.8734 29.5 33.2683 29.5V26.5ZM29.5 30.3077C29.5 32.3809 31.1681 34.1154 33.2683 34.1154V31.1154C32.8734 31.1154 32.5 30.7729 32.5 30.3077H29.5ZM48.7681 34.1154H59.7317V31.1154H48.7681V34.1154ZM59.7317 34.1154C61.8319 34.1154 63.5 32.3809 63.5 30.3077H60.5C60.5 30.7729 60.1266 31.1154 59.7317 31.1154V34.1154ZM63.5 30.3077C63.5 28.2345 61.8319 26.5 59.7317 26.5V29.5C60.1266 29.5 60.5 29.8425 60.5 30.3077H63.5ZM59.7317 26.5H48.7681V29.5H59.7317V26.5ZM48.7681 26.5C46.6678 26.5 44.9997 28.2345 44.9997 30.3077H47.9997C47.9997 29.8425 48.3731 29.5 48.7681 29.5V26.5ZM44.9997 30.3077C44.9997 32.3809 46.6678 34.1154 48.7681 34.1154V31.1154C48.3731 31.1154 47.9997 30.7729 47.9997 30.3077H44.9997ZM44.2318 46.5H33.2683V49.5H44.2318V46.5ZM33.2683 46.5C32.8734 46.5 32.5 46.1575 32.5 45.6923H29.5C29.5 47.7655 31.1681 49.5 33.2683 49.5V46.5ZM32.5 45.6923C32.5 45.2271 32.8734 44.8846 33.2683 44.8846V41.8846C31.1681 41.8846 29.5 43.6191 29.5 45.6923H32.5ZM33.2683 44.8846H44.2318V41.8846H33.2683V44.8846ZM44.2318 44.8846C44.6267 44.8846 45.0001 45.2271 45.0001 45.6923H48.0001C48.0001 43.6191 46.332 41.8846 44.2318 41.8846V44.8846ZM45.0001 45.6923C45.0001 46.1575 44.6267 46.5 44.2318 46.5V49.5C46.332 49.5 48.0001 47.7655 48.0001 45.6923H45.0001ZM52.5486 49.5H59.7317V46.5H52.5486V49.5ZM59.7317 49.5C61.8319 49.5 63.5 47.7655 63.5 45.6923H60.5C60.5 46.1575 60.1266 46.5 59.7317 46.5V49.5ZM63.5 45.6923C63.5 43.6191 61.8319 41.8846 59.7317 41.8846V44.8846C60.1266 44.8846 60.5 45.2271 60.5 45.6923H63.5ZM59.7317 41.8846H52.5486V44.8846H59.7317V41.8846ZM52.5486 41.8846C50.4484 41.8846 48.7803 43.6191 48.7803 45.6923H51.7803C51.7803 45.2271 52.1537 44.8846 52.5486 44.8846V41.8846ZM48.7803 45.6923C48.7803 47.7655 50.4484 49.5 52.5486 49.5V46.5C52.1537 46.5 51.7803 46.1575 51.7803 45.6923H48.7803Z" fill="#222222" mask="url(#path-1-inside-1)"/>
<mask id="path-3-inside-2" fill="white">
<path fill-rule="evenodd" clip-rule="evenodd" d="M15 72.9792C15 78.4906 19.55 83 25.1111 83H75.6667C76.95 83 78 81.9594 78 80.6875V75.6771C78 74.4052 76.95 73.3646 75.6667 73.3646C74.3833 73.3646 73.3333 74.4052 73.3333 75.6771V78.375H25.1111C22.1167 78.375 19.6667 75.9469 19.6667 72.9792C19.6667 71.5146 20.2111 70.2042 21.3 69.1635C22.3111 68.1615 23.6334 67.5833 25.1111 67.5833H75.6667C76.95 67.5833 78 66.5427 78 65.2708V11.3125C78 10.0406 76.95 9 75.6667 9H25.1111C19.55 9 15 13.5094 15 19.0208V72.9792ZM19.6667 64.52C21.2527 63.5033 23.1411 62.9583 25.1111 62.9583H73.3333V13.625H25.1111C22.1167 13.625 19.6667 16.0531 19.6667 19.0208V64.52Z"/>
</mask>
<path fill-rule="evenodd" clip-rule="evenodd" d="M15 72.9792C15 78.4906 19.55 83 25.1111 83H75.6667C76.95 83 78 81.9594 78 80.6875V75.6771C78 74.4052 76.95 73.3646 75.6667 73.3646C74.3833 73.3646 73.3333 74.4052 73.3333 75.6771V78.375H25.1111C22.1167 78.375 19.6667 75.9469 19.6667 72.9792C19.6667 71.5146 20.2111 70.2042 21.3 69.1635C22.3111 68.1615 23.6334 67.5833 25.1111 67.5833H75.6667C76.95 67.5833 78 66.5427 78 65.2708V11.3125C78 10.0406 76.95 9 75.6667 9H25.1111C19.55 9 15 13.5094 15 19.0208V72.9792ZM19.6667 64.52C21.2527 63.5033 23.1411 62.9583 25.1111 62.9583H73.3333V13.625H25.1111C22.1167 13.625 19.6667 16.0531 19.6667 19.0208V64.52Z" fill="#F8B133"/>
<path d="M73.3333 78.375V79.875H74.8333V78.375H73.3333ZM21.3 69.1635L22.3364 70.248L22.3462 70.2385L22.3559 70.2289L21.3 69.1635ZM19.6667 64.52H18.1667V67.2634L20.4762 65.7828L19.6667 64.52ZM73.3333 62.9583V64.4583H74.8333V62.9583H73.3333ZM73.3333 13.625H74.8333V12.125H73.3333V13.625ZM13.5 72.9792C13.5 79.3317 18.7343 84.5 25.1111 84.5V81.5C20.3657 81.5 16.5 77.6495 16.5 72.9792H13.5ZM25.1111 84.5H75.6667V81.5H25.1111V84.5ZM75.6667 84.5C77.7657 84.5 79.5 82.8005 79.5 80.6875H76.5C76.5 81.1183 76.1343 81.5 75.6667 81.5V84.5ZM79.5 80.6875V75.6771H76.5V80.6875H79.5ZM79.5 75.6771C79.5 73.5641 77.7657 71.8646 75.6667 71.8646V74.8646C76.1343 74.8646 76.5 75.2463 76.5 75.6771H79.5ZM75.6667 71.8646C73.5676 71.8646 71.8333 73.5641 71.8333 75.6771H74.8333C74.8333 75.2463 75.199 74.8646 75.6667 74.8646V71.8646ZM71.8333 75.6771V78.375H74.8333V75.6771H71.8333ZM73.3333 76.875H25.1111V79.875H73.3333V76.875ZM25.1111 76.875C22.9324 76.875 21.1667 75.1058 21.1667 72.9792H18.1667C18.1667 76.788 21.301 79.875 25.1111 79.875V76.875ZM21.1667 72.9792C21.1667 71.9192 21.5472 71.0022 22.3364 70.248L20.2637 68.0791C18.8751 69.4062 18.1667 71.11 18.1667 72.9792H21.1667ZM22.3559 70.2289C23.0978 69.4937 24.045 69.0833 25.1111 69.0833V66.0833C23.2217 66.0833 21.5244 66.8293 20.2441 68.0981L22.3559 70.2289ZM25.1111 69.0833H75.6667V66.0833H25.1111V69.0833ZM75.6667 69.0833C77.7657 69.0833 79.5 67.3838 79.5 65.2708H76.5C76.5 65.7016 76.1343 66.0833 75.6667 66.0833V69.0833ZM79.5 65.2708V11.3125H76.5V65.2708H79.5ZM79.5 11.3125C79.5 9.19954 77.7657 7.5 75.6667 7.5V10.5C76.1343 10.5 76.5 10.8817 76.5 11.3125H79.5ZM75.6667 7.5H25.1111V10.5H75.6667V7.5ZM25.1111 7.5C18.7343 7.5 13.5 12.6683 13.5 19.0208H16.5C16.5 14.3505 20.3657 10.5 25.1111 10.5V7.5ZM13.5 19.0208V72.9792H16.5V19.0208H13.5ZM20.4762 65.7828C21.8114 64.9269 23.417 64.4583 25.1111 64.4583V61.4583C22.8653 61.4583 20.6939 62.0798 18.8571 63.2573L20.4762 65.7828ZM25.1111 64.4583H73.3333V61.4583H25.1111V64.4583ZM74.8333 62.9583V13.625H71.8333V62.9583H74.8333ZM73.3333 12.125H25.1111V15.125H73.3333V12.125ZM25.1111 12.125C21.301 12.125 18.1667 15.212 18.1667 19.0208H21.1667C21.1667 16.8942 22.9324 15.125 25.1111 15.125V12.125ZM18.1667 19.0208V64.52H21.1667V19.0208H18.1667Z" fill="#222222" mask="url(#path-3-inside-2)"/>
</svg>
